X: 4
T: Eamonn McGivney's
R: hornpipe
M: 4/4
L: 1/8
K: Emin
e2 e>^d e>f (3gfe | (3ded B2 B2 d>B | ABde fgec | d2 A2 A2 B>d |e2 e>^d e>fg>e | d>B (3GAB d2 c>B | A>GF>E D2 F>A | (3GAG E2 E2 :|B>GE>G B2 (3FGA | B>A (3GAF E2 (3EFG | A>FD>F A>Fd>B | A>G (3FGE D2 (3DEF |G>D (3GAB g2 (3gfe | d>BG>B d3 B | A2 (3GFE D2 (3FGA | G2 (3FGF E2 :|


Tune 2020	Setting 15426

